X:1655
T:The Triumph (Step and Fetch Her)
F:http://www.vwml.org/record/CJS2/10/1655
S:William Kimber of Oxford
Z:transcribed by Alice Baillie
M:C
L:1/4
K:G
d B c A | G g e g | d B c/B/A/F/ | G B A B/c/ | 
d B c A | G g e g | d B c/B/A/G/ | G B G2 || 
A> c B d | A> c B d | A> B c e | d/c/B/A/ G2 | 
A> c B d | A> c B d | A> B c e | d/c/B/A/ G2 ||

